findly-builder/apps/searchassist/src/assets/images/edit-pencil.svg

<svg width="14" height="13" viewBox="0 0 14 13" fill="none" xmlns="http://www.w3.org/2000/svg">
<path fill-rule="evenodd" clip-rule="evenodd" d="M12.3846 0.657384C11.9985 0.271237 11.5411 0.0234375 11.0311 0.0234375C10.5212 0.0234375 10.0636 0.271478 9.67754 0.657384L1.56132 8.72611L0.20752 12.7875L4.26745 11.4342L12.3836 3.36553L12.3846 3.36449C12.7708 2.97834 13.0186 2.52098 13.0186 2.01094C13.0186 1.5009 12.7708 1.04353 12.3846 0.657384ZM9.02762 2.71358L10.3205 4.00647L3.72873 10.5597L1.78866 11.2064L2.43486 9.26776L9.02762 2.71358Z" fill="#202124"/>
</svg>

<svg width="14" height="13" fill="none" xmlns="http://www.w3.org/2000/svg"><path fill-rule="evenodd" clip-rule="evenodd" d="M12.385.657C11.999.271 11.54.023 11.03.023s-.967.248-1.353.634L1.56 8.727l-1.353 4.06 4.06-1.353 8.116-8.068v-.002c.387-.386.635-.843.635-1.353s-.248-.967-.634-1.354ZM9.028 2.714l1.292 1.292-6.59 6.554-1.94.646.646-1.938 6.593-6.554Z" fill="#202124"/></svg>
